games/files/tower-master/assets/wenxue.svg

<svg xmlns="http://www.w3.org/2000/svg"><defs><font id="prefix__fonteditor" horiz-adv-x="950"><font-face font-family="e`¦e°R^tOS W8" font-weight="400" ascent="1000" descent="-240" x-height="0" bbox="3 -59 926 802" underline-thickness="0" underline-position="0" unicode-range="U+0025-5c42"/><glyph glyph-name="percent" unicode="%" d="M209 274q-91 0-138 60.5T24 511q0 117 47 177.5T209 749t137.5-60.5T393 511t-46.5-177T209 274m0 108q32 0 45.5 29T268 511q0 72-13.5 101.5T209 642t-46.5-30.5T148 511q0-69 14.5-99t46.5-30M742-11q-91 0-138 60.5T557 226q0 117 47 177.5T742 464t137.5-60.5T926 226 879.5 49 742-11m0 108q32 0 45.5 29T801 226q0 72-13.5 101.5T742 357t-46.5-30.5T681 226q0-69 14.5-99T742 97M538 740h134L412 0H278z"/><glyph glyph-name="period" unicode="." d="M123-8Q74-8 52 13T30 82t21.5 68.5T123 171q48 0 70-20.5T215 82t-22-69-70-21"/><glyph glyph-name="zero" unicode="0" d="M304-10q-134 0-203 96.5T32 369q0 187 69 284t203 97 202.5-97T575 369q0-186-68.5-282.5T304-10m0 141q27 0 46 13t31 41.5 17.5 73.5 5.5 110-5.5 111-17.5 74.5-31 41.5-46 13q-55 0-77.5-55.5T204 369q0-128 22.5-183t77.5-55"/><glyph glyph-name="one" unicode="1" d="M169 556h-4L50 508H28L3 585l4 23 205 132h129V0H169z"/><glyph glyph-name="two" unicode="2" d="M29 131q0 44 9 79.5T67 276t52.5 57.5T199 388q59 35 82 65t23 71q0 45-26.5 65T190 609q-30 0-64.5-5.5T57 588L44 723q55 14 106.5 20.5T245 750q231 0 231-204 0-77-37-135.5T320 300q-39-26-63-43.5t-37-31-17.5-25.5-4.5-27v-30h272V0H29z"/><glyph glyph-name="three" unicode="3" d="M173-9Q107-9 35 4v128h4q20-8 47.5-12t58.5-4q72 0 101.5 23t29.5 77q0 55-29 78t-108 23h-33v119h32q35 0 57.5 4.5t36 15 19 28.5 5.5 46q0 50-22.5 71T157 622q-23 0-51-3.5T40 607h-5l-2 128q61 16 138 16 134 0 195.5-44T428 567q0-151-126-183v-4q70-14 108-60t38-118q0-100-71.5-154.5T173-9"/><glyph glyph-name="four" unicode="4" d="M7 253v4l234 493h4l166-10 8-4-241-457v-4h132l37 191h126V275h71V150h-71V0H302v150H25z"/><glyph glyph-name="five" unicode="5" d="M179-11q-29 0-63 3.5T36 4v138h36q51-12 93-12 123 0 123 95 0 30-8 50.5t-28 33-53.5 17.5-84.5 5H46l-4 4 26 405h343V598H199l-10-148q143-2 207.5-55.5T461 225q0-112-74-174T179-11"/><glyph glyph-name="six" unicode="6" d="M294-10Q167-10 99.5 78.5T32 334q0 207 85.5 311.5T373 750q64 0 139-19l-20-133q-35 8-62.5 11.5T379 613q-84 0-126.5-44T199 424q26 23 60.5 36t75.5 13q50 0 89.5-15.5t68-45T536 342t15-92q0-60-18-108.5t-51-82T401.5 8 294-10m0 360q-29 0-55.5-12T195 306q3-93 26.5-134t72.5-41q90 0 90 114 0 54-21.5 79.5T294 350"/><glyph glyph-name="seven" unicode="7" d="M218-20 77 0v19l200 579H15q0 31-.5 61t-.5 61l24 20h389l20-98v-27L248 2z"/><glyph glyph-name="eight" unicode="8" d="M278-3Q162-3 96.5 46T31 182q0 66 25 112t79 78q-38 26-62 67T49 551q0 45 16.5 81.5T112 695t72 40 94 14 94.5-14 72.5-40 46.5-62.5T508 551q0-56-17.5-92T426 392q43-23 71.5-64.5T526 211q0-101-65.5-157.5T278-3m92 197q0 26-8.5 45t-24 33.5-37 25T254 318q-31-21-48.5-48.5T188 205q0-48 23-74.5t67-26.5q45 0 68.5 23t23.5 67M199 540q0-44 29.5-66t76.5-37q28 21 40 48t12 65q0 86-79 86-38 0-58.5-24.5T199 540"/><glyph glyph-name="nine" unicode="9" d="M277 750q127 0 195-88.5T540 405q0-206-86-310.5T198-10Q135-10 60 9l19 133q36-8 63-11.5t50-3.5q84 0 126 43.5T371 314q-25-23-59.5-35.5T237 266q-49 0-89 16t-68.5 45T36 397.5 21 490q0 60 17.5 108.5t50.5 82 80.5 51.5T277 750m0-361q28 0 54.5 12t43.5 31q-2 94-25.5 135.5T277 609q-89 0-89-114 0-55 21.5-80.5T277 389"/><glyph glyph-name="uni5C42" unicode="层" d="M778 802V504H239q-2-67-5.5-142.5t-7-150.5-7-144.5T214-59H55q3 50 6.5 127.5t7.5 166 7.5 180T83 585t5 137 2 80zM252 310h505V189H499L438 65h152l-41 102h140l79-187q3-11-.5-20.5T755-50H258q-7-3-12.5 5.5T244-27l97 216h-89zm23 152h458V342H275zm342 168v45H244v-22q0-11-1-23z"/></font></defs></svg>

<?xml version="1.0" standalone="no"?><!DOCTYPE svg PUBLIC "-//W3C//DTD SVG 1.1//EN" "http://www.w3.org/Graphics/SVG/1.1/DTD/svg11.dtd" ><svg xmlns="http://www.w3.org/2000/svg"><metadata></metadata><defs><font id="fonteditor" horiz-adv-x="950"><font-face font-family="e`¦e°R^tOS W8" font-weight="400" font-stretch="normal" units-per-em="1000" panose-1="0 0 0 0 0 0 0 0 0 0" ascent="1000" descent="-240" x-height="0" bbox="3 -59 926 802" underline-thickness="0" underline-position="0" unicode-range="U+0025-5c42" /><missing-glyph horiz-adv-x="860" d="M780 30 L80 30 L80 730 L780 730 L780 30 ZM120 660 L120 100 L400 380 L120 660 ZM150 70 L710 70 L430 350 L150 70 ZM430 410 L710 690 L150 690 L430 410 ZM740 100 L740 660 L460 380 L740 100 Z" /><glyph glyph-name="percent" unicode="%" d="M209 274 Q118 274 71 334.5 Q24 395 24 511 Q24 628 71 688.5 Q118 749 209 749 Q300 749 346.5 688.5 Q393 628 393 511 Q393 394 346.5 334 Q300 274 209 274 ZM209 382 Q241 382 254.5 411 Q268 440 268 511 Q268 583 254.5 612.5 Q241 642 209 642 Q177 642 162.5 611.5 Q148 581 148 511 Q148 442 162.5 412 Q177 382 209 382 ZM742 -11 Q651 -11 604 49.5 Q557 110 557 226 Q557 343 604 403.5 Q651 464 742 464 Q833 464 879.5 403.5 Q926 343 926 226 Q926 109 879.5 49 Q833 -11 742 -11 ZM742 97 Q774 97 787.5 126 Q801 155 801 226 Q801 298 787.5 327.5 Q774 357 742 357 Q710 357 695.5 326.5 Q681 296 681 226 Q681 157 695.5 127 Q710 97 742 97 ZM538 740 L672 740 L412 0 L278 0 L538 740 Z" /><glyph glyph-name="period" unicode="." d="M123 -8 Q74 -8 52 13 Q30 34 30 82 Q30 130 51.5 150.5 Q73 171 123 171 Q171 171 193 150.5 Q215 130 215 82 Q215 34 193 13 Q171 -8 123 -8 Z" /><glyph glyph-name="zero" unicode="0" d="M304 -10 Q170 -10 101 86.5 Q32 183 32 369 Q32 556 101 653 Q170 750 304 750 Q438 750 506.5 653 Q575 556 575 369 Q575 183 506.5 86.5 Q438 -10 304 -10 ZM304 131 Q331 131 350 144 Q369 157 381 185.5 Q393 214 398.5 259 Q404 304 404 369 Q404 434 398.5 480 Q393 526 381 554.5 Q369 583 350 596 Q331 609 304 609 Q249 609 226.5 553.5 Q204 498 204 369 Q204 241 226.5 186 Q249 131 304 131 Z" /><glyph glyph-name="one" unicode="1" d="M169 556 L165 556 L50 508 L28 508 L3 585 L7 608 L212 740 L341 740 L341 0 L169 0 L169 556 Z" /><glyph glyph-name="two" unicode="2" d="M29 131 Q29 175 38 210.5 Q47 246 67 276 Q87 306 119.5 333.5 Q152 361 199 388 Q258 423 281 453 Q304 483 304 524 Q304 569 277.5 589 Q251 609 190 609 Q160 609 125.5 603.5 Q91 598 57 588 L44 723 Q99 737 150.5 743.5 Q202 750 245 750 Q476 750 476 546 Q476 469 439 410.5 Q402 352 320 300 Q281 274 257 256.5 Q233 239 220 225.5 Q207 212 202.5 200 Q198 188 198 173 L198 143 L470 143 L470 0 L29 0 L29 131 Z" /><glyph glyph-name="three" unicode="3" d="M173 -9 Q107 -9 35 4 L35 132 L39 132 Q59 124 86.5 120 Q114 116 145 116 Q217 116 246.5 139 Q276 162 276 216 Q276 271 247 294 Q218 317 139 317 L106 317 L106 436 L138 436 Q173 436 195.5 440.5 Q218 445 231.5 455.5 Q245 466 250.5 484 Q256 502 256 530 Q256 580 233.5 601 Q211 622 157 622 Q134 622 106 618.5 Q78 615 40 607 L35 607 L33 735 Q94 751 171 751 Q305 751 366.5 707 Q428 663 428 567 Q428 416 302 384 L302 380 Q372 366 410 320 Q448 274 448 202 Q448 102 376.5 47.5 Q305 -7 173 -9 Z" /><glyph glyph-name="four" unicode="4" d="M7 253 L7 257 L241 750 L245 750 L411 740 L419 736 L178 279 L178 275 L310 275 L347 466 L473 466 L473 275 L544 275 L544 150 L473 150 L473 0 L302 0 L302 150 L25 150 L7 253 Z" /><glyph glyph-name="five" unicode="5" d="M179 -11 Q150 -11 116 -7.5 Q82 -4 36 4 L36 142 L72 142 Q123 130 165 130 Q288 130 288 225 Q288 255 280 275.5 Q272 296 252 308.5 Q232 321 198.5 326 Q165 331 114 331 L46 331 L42 335 L68 740 L411 740 L411 598 L199 598 L189 450 Q332 448 396.5 394.5 Q461 341 461 225 Q461 113 387 51 Q313 -11 179 -11 Z" /><glyph glyph-name="six" unicode="6" d="M294 -10 Q167 -10 99.5 78.5 Q32 167 32 334 Q32 541 117.5 645.5 Q203 750 373 750 Q437 750 512 731 L492 598 Q457 606 429.5 609.5 Q402 613 379 613 Q295 613 252.5 569 Q210 525 199 424 Q225 447 259.5 460 Q294 473 335 473 Q385 473 424.5 457.5 Q464 442 492.5 412.5 Q521 383 536 342 Q551 301 551 250 Q551 190 533 141.5 Q515 93 482 59.5 Q449 26 401.5 8 Q354 -10 294 -10 ZM294 350 Q265 350 238.5 338 Q212 326 195 306 Q198 213 221.5 172 Q245 131 294 131 Q384 131 384 245 Q384 299 362.5 324.5 Q341 350 294 350 Z" /><glyph glyph-name="seven" unicode="7" d="M218 -20 L77 0 L77 19 L277 598 L15 598 Q15 629 14.5 659 Q14 689 14 720 L38 740 L427 740 L447 642 L447 615 L248 2 L218 -20 Z" /><glyph glyph-name="eight" unicode="8" d="M278 -3 Q162 -3 96.5 46 Q31 95 31 182 Q31 248 56 294 Q81 340 135 372 Q97 398 73 439 Q49 480 49 551 Q49 596 65.5 632.5 Q82 669 112 695 Q142 721 184 735 Q226 749 278 749 Q330 749 372.5 735 Q415 721 445 695 Q475 669 491.5 632.5 Q508 596 508 551 Q508 495 490.5 459 Q473 423 426 392 Q469 369 497.5 327.5 Q526 286 526 211 Q526 110 460.5 53.5 Q395 -3 278 -3 ZM370 194 Q370 220 361.5 239 Q353 258 337.5 272.5 Q322 287 300.5 297.5 Q279 308 254 318 Q223 297 205.5 269.5 Q188 242 188 205 Q188 157 211 130.5 Q234 104 278 104 Q323 104 346.5 127 Q370 150 370 194 ZM199 540 Q199 496 228.5 474 Q258 452 305 437 Q333 458 345 485 Q357 512 357 550 Q357 636 278 636 Q240 636 219.5 611.5 Q199 587 199 540 Z" /><glyph glyph-name="nine" unicode="9" d="M277 750 Q404 750 472 661.5 Q540 573 540 405 Q540 199 454 94.5 Q368 -10 198 -10 Q135 -10 60 9 L79 142 Q115 134 142 130.5 Q169 127 192 127 Q276 127 318 170.5 Q360 214 371 314 Q346 291 311.5 278.5 Q277 266 237 266 Q188 266 148 282 Q108 298 79.5 327 Q51 356 36 397.5 Q21 439 21 490 Q21 550 38.5 598.5 Q56 647 89 680.5 Q122 714 169.5 732 Q217 750 277 750 ZM277 389 Q305 389 331.5 401 Q358 413 375 432 Q373 526 349.5 567.5 Q326 609 277 609 Q188 609 188 495 Q188 440 209.5 414.5 Q231 389 277 389 Z" /><glyph glyph-name="uni5C42" unicode="&#x5c42;" d="M778 802 L778 504 L239 504 Q237 437 233.5 361.5 Q230 286 226.5 211 Q223 136 219.5 66.5 Q216 -3 214 -59 L55 -59 Q58 -9 61.5 68.5 Q65 146 69 234.5 Q73 323 76.5 414.5 Q80 506 83 585 Q86 664 88 722 Q90 780 90 802 L778 802 ZM252 310 L757 310 L757 189 L499 189 L438 65 L590 65 L549 167 L689 167 L768 -20 Q771 -31 767.5 -40.5 Q764 -50 755 -50 L258 -50 Q251 -53 245.5 -44.5 Q240 -36 244 -27 L341 189 L252 189 L252 310 ZM275 462 L733 462 L733 342 L275 342 L275 462 ZM617 630 L617 675 L244 675 Q244 664 244 653 Q244 642 243 630 L617 630 Z" /></font></defs></svg>
